ui/src/assets/icons/share.svg

<?xml version="1.0" encoding="UTF-8"?>
<svg width="14px" height="15px" viewBox="0 0 14 15" version="1.1" xmlns="http://www.w3.org/2000/svg" xmlns:xlink="http://www.w3.org/1999/xlink">
    <!-- Generator: Sketch 48.2 (47327) - http://www.bohemiancoding.com/sketch -->
    <title>Share</title>
    <desc>Created with Sketch.</desc>
    <defs></defs>
    <g id="Brand-styles" stroke="none" stroke-width="1" fill="none" fill-rule="evenodd" transform="translate(-759.000000, -3290.000000)">
        <g id="Share" transform="translate(759.000000, 3290.000000)" fill="#302C71" fill-rule="nonzero">
            <path d="M11.450404,9.96883671 C10.8185751,9.97044819 10.209869,10.2012227 9.74231611,10.6164122 L4.93672547,8.2627244 C5.12358325,7.7556117 5.12358325,7.20071192 4.93672547,6.69359922 L9.74231611,4.33991144 C10.6365353,5.12837555 11.9735935,5.19778437 12.9483017,4.50633923 C13.9230098,3.8148941 14.2693509,2.55130399 13.778755,1.47651478 C13.2881591,0.40172558 12.0945196,-0.190931621 10.9166573,0.0554469425 C9.73879512,0.301825506 8.89817196,1.31999828 8.90101908,2.49681202 C8.90821024,2.76362711 8.95545256,3.02796583 9.04123525,3.28137461 L4.2356446,5.63506239 C3.21071553,4.75197598 1.65535783,4.81549312 0.709439069,5.7790643 C-0.23647969,6.74263549 -0.23647969,8.26350163 0.709439069,9.22707282 C1.65535783,10.190644 3.21071553,10.2541611 4.2356446,9.37107473 L9.04123525,11.7247625 C8.95545256,11.9781713 8.90821024,12.24251 8.90101908,12.5093251 C8.90101908,13.8848869 10.0424176,15 11.450404,15 C12.8583905,15 13.999789,13.8848869 13.999789,12.5093251 C13.999789,11.1337633 12.8583905,10.0186502 11.450404,10.0186502 L11.450404,9.96883671 Z M11.450404,1.25147457 C12.1543972,1.25147457 12.7250965,1.80903113 12.7250965,2.49681202 C12.7250965,3.1845929 12.1543972,3.74214946 11.450404,3.74214946 C10.7464108,3.74214946 10.1757116,3.1845929 10.1757116,2.49681202 C10.1757116,1.80903113 10.7464108,1.25147457 11.450404,1.25147457 Z M2.52755668,8.72349926 C1.82356347,8.72349926 1.25286421,8.16594269 1.25286421,7.47816181 C1.25286421,6.79038093 1.82356347,6.23282436 2.52755668,6.23282436 C3.2315499,6.23282436 3.80224916,6.79038093 3.80224916,7.47816181 C3.80224916,8.16594269 3.2315499,8.72349926 2.52755668,8.72349926 Z M11.450404,13.7048491 C10.7464108,13.7048491 10.1757116,13.1472925 10.1757116,12.4595116 C10.1757116,11.7717307 10.7464108,11.2141742 11.450404,11.2141742 C12.1543972,11.2141742 12.7250965,11.7717307 12.7250965,12.4595116 C12.7250965,13.1472925 12.1543972,13.7048491 11.450404,13.7048491 Z" id="Shape"></path>
        </g>
    </g>
</svg>

<svg xmlns="http://www.w3.org/2000/svg" viewBox="0 0 14 15">
    <path fill="#302C71" fill-rule="nonzero" d="M11.45 9.97c-.63 0-1.24.23-1.7.65L4.93 8.26c.18-.5.18-1.06 0-1.57l4.8-2.35c.9.79 2.23.86 3.2.17.98-.7 1.33-1.96.84-3.03A2.57 2.57 0 0 0 8.9 2.5c0 .26.06.53.14.78l-4.8 2.36a2.6 2.6 0 0 0-3.53.14 2.45 2.45 0 0 0 0 3.45 2.6 2.6 0 0 0 3.53.14l4.8 2.35c-.08.26-.13.52-.14.79 0 1.37 1.14 2.49 2.55 2.49 1.4 0 2.55-1.12 2.55-2.5 0-1.37-1.14-2.48-2.55-2.48v-.05zm0-8.72c.7 0 1.28.56 1.28 1.25 0 .68-.58 1.24-1.28 1.24-.7 0-1.27-.56-1.27-1.24 0-.7.57-1.25 1.27-1.25zM2.53 8.72c-.7 0-1.28-.55-1.28-1.24s.57-1.25 1.28-1.25c.7 0 1.27.56 1.27 1.25s-.57 1.24-1.27 1.24zm8.92 4.98c-.7 0-1.27-.55-1.27-1.24s.57-1.25 1.27-1.25c.7 0 1.28.56 1.28 1.25s-.58 1.24-1.28 1.24z"/>
</svg>
